X:1
T:Esca Viatorum, 88.68.86
T:Esca Viatorum, 88.68.86
T:John Bacchus Dykes, 1868
T:Public Domain Courtesy of the Cyber Hymnal™
C:John Bacchus Dykes, 1868
Z:Public Domain
Z:Courtesy of the Cyber Hymnal™
%%score ( 1 2 ) ( 3 4 )
L:1/8
Q:1/4=112
M:none
K:Eb
V:1 treble 
V:2 treble 
V:3 bass 
V:4 bass 
V:1
 E2 | [EG]2 [_DB]2 [CA]2 [CF]2 | [B,E]2 [DF]2 [EG]2 E2 | [EA]2 [EG]2 [Cc]2 [EB]2 | %4
 [Ad]2 [Ae]2 [FA]2 [FA]2 | [EG]2 G2 [DG]2 (B>=A) | G6 [=B,D]2 | [B,D]2 [CE]2 [DF]2 [EG]2 | %8
 B3 z A [_EG]2 [=EG]2 | [EG]2 [FA]2 [GB]2 [Ac]2 | e3 z _d [Ac]2 =d2 | [Ee]2 E2 [B,E]2 (G>F) | E6 |] %13
V:2
 E2 | x8 | x6 E2 | x8 | x8 | x2 (DE) x ^F2 x | G6 x2 | x8 | =E2 D2 x5 | x8 | A2 (G2 x GF) x2 | %11
 x2 (B,C) x D2 x | E6 |] %13
V:3
 [E,G,]2 | [E,B,]2 [G,,E,]2 [A,,E,]2 [A,,A,]2 | [B,,G,]2 [B,,B,]2 [E,B,]2 [G,B,]2 | %3
 [CE]2 [B,E]2 [A,E]2 [G,B,]2 | [F,B,]2 [E,C]2 [D,B,]2 [D,B,]2 | [E,B,]2 G,2 [D,B,]2 [D,C]2 | %6
 [G,B,]6 [G,=B,]2 | [F,G,]2 [E,G,]2 [D,F,]2 [C,E,]2 | [B,,G,]2 [B,,F,]2 [E,G,]2 C2 x | %9
 [B,C]2 [A,C]2 [G,B,]2 [F,A,]2 | [E,C]2 [E,B,]2 [A,C]2 (B,A,) x | [C,G,]2 E,2 [B,,G,]2 [B,,A,]2 | %12
 [E,G,]6 |] %13
V:4
 x2 | x8 | x8 | x8 | x8 | x2 (B,,C,) x4 | x8 | x8 | x6 C2 x | x8 | x6 B,,2 x | x2 (G,,A,,) x4 | %12
 x6 |] %13

